X:1
T: Lord Mauchline
C:Mr. McLeod
R:Reel
Q: 232
K:Em
M:4/4
L:1/8
|:E|B,E EF GA Bd|FD AF dF AF|GF EF GA Be|dB AF E2 E2|
B,E EF GA Bd|FD AF dF AF|GF EF GA Bg|fd af e2 ef|
gf ef ga bg|fe de fg af|gf ef ga bg|fd af e2 ef|
gf ef ga bg|fe de fg af|ge f^d eg fe|dB AF E2 E:|
